X:1
T: Dagmar's Fancy
C:
R:Strathspey
Q: 128
K:G
M:4/4
L:1/16
|:D4|G3A B2G2 d4 BF3|e3f g2e2 d4 BG3|c3d e2c2 B3D GB3|c3B A2G2 F2G2 A2D2|
G3A B2G2 d4 BF3|e3f g2a2 b6 f2|g6 d2 e3d c2B2|A6 G2 G4 D4|
G3A B2G2 E4 e4|d3B GB3 d6 F2|E4 ((3E2F2G2) D3G B2G2|c3B A2G2 F2G2 A2D2|
G3A B2G2 d2e2 f2g2|e6 d2 d4 BG3|c4 g3f e2d2 c2B2|A6 G2 G4:|
